X: 20363
T: John Cheap The Chapman
R: reel
M: 4/4
K: Eminor
DEEB GEBG|DEBG FFED|DEEB GEBG|FDAG FDDF|
DEEB GEBG|DEBG FFED|DEEB GEBG|FDAG FDA/B/d|
e3B GABG|Eeeg f2ed|e3B GABG|FDAG F2ED|
e3B GABG|Eeeg f2ed|de3 g2fd|egB/c/d g2fd|

